X:3689
T:Lisa Cronin's Jig
O:england
M:6/8
L:1/8
Q:200
C:Stephen P McNally
R:Jig/March
N:For Lisa Cronin of Tralee, Co. Kerry
H:Written some time during 1995
K:Hp
|:g>aa e>dc|d>cd B>cd|g>aa e>ac|d>cd f>ed|
g>aa e>ad|a>ca B>cd|e>da g>ed|B>cd e3:|
|:c>AA e>Aa|g>fe B>cd|c>AA e>Aa|g>fe f>ed|
c>AA e>Aa|g>fe B>cd|e>da g>ed|B>cd e3:|
|:g>aa (4eaBa|c>aa B>cd|g>aa (4eaca|d>aa f>ed|
g>aa (4eaBa|c>aa B>cd|e>da g>ed|B>cd e3:|
|:c>AA e>Ae/2f/2|g>AA B>cd|c>AA e>Ae/2f/2|g>AA f>Ad|
c>AA e>Ae/2f/2|g>AA B>cd|e>da g>ed|B>cd e3:|
